X:10
T:Off She Goes
R:slide
S:Sean Ryan
Z:id:hn-slide-10
M:6/8
K:D
F2A G2B|ABc d3|~F3 ~G3|AFD E2D|
F2A G2B|ABc d2e|f2d g2f|1 edc d3:|2 edc d2e||
|:faf def|gbg efg|faf def|ecA A2e|
faf def|~g3 efg|fed g2f|1 edc d2e:|2 edc d3||
<end>
<start>
